hockey-sticks.svg

<svg fill="currentColor" viewBox="0 0 24 24"><path d="M17.68 4H14.3l-1.74 4c-.03.04-.11.22-.25.5s-.25.54-.31.69L9.7 4H6.32l4.09 8.84c.09.22.32.75.7 1.59.39.85.67 1.48.89 1.92l1.41 3.09c.19.34.48.51.89.51L19 20v-4h-4l-1.4-3.16zm2.35 12v4H22v-3c0-.27-.09-.5-.28-.72-.19-.2-.42-.28-.72-.28zM5 16v4l4.7-.05c.41 0 .7-.17.89-.51l.85-1.94-1.6-3.44L9 16zm-3 4h1.97v-4H3c-.3 0-.53.08-.72.28-.19.22-.28.45-.28.72z"/></svg>

<svg  viewBox="0 0 24 24" fill="currentColor"><path  d="M17.68 4H14.3L12.56 8C12.53 8.04 12.45 8.22 12.31 8.5S12.06 9.04 12 9.19L9.7 4H6.32L10.41 12.84C10.5 13.06 10.73 13.59 11.11 14.43C11.5 15.28 11.78 15.91 12 16.35L13.41 19.44C13.6 19.78 13.89 19.95 14.3 19.95L19 20V16H15L13.6 12.84L17.68 4M20.03 16V20H22V17C22 16.73 21.91 16.5 21.72 16.28C21.53 16.08 21.3 16 21 16H20.03M5 16V20L9.7 19.95C10.11 19.95 10.4 19.78 10.59 19.44L11.44 17.5L9.84 14.06L9 16H5M2 20H3.97V16H3C2.7 16 2.47 16.08 2.28 16.28C2.09 16.5 2 16.73 2 17V20Z"/></svg>
